images/3234140.svg

<?xml version="1.0" encoding="UTF-8"?>
<svg xmlns="http://www.w3.org/2000/svg" xmlns:xlink="http://www.w3.org/1999/xlink" width="300pt" height="300pt" viewBox="0 0 300 300" version="1.1">
<defs>
<g>
<symbol overflow="visible" id="glyph0-0">
<path style="stroke:none;" d="M 0.59375 2.125 L 0.59375 -8.46875 L 6.59375 -8.46875 L 6.59375 2.125 Z M 1.265625 1.453125 L 5.9375 1.453125 L 5.9375 -7.78125 L 1.265625 -7.78125 Z M 1.265625 1.453125 "/>
</symbol>
<symbol overflow="visible" id="glyph0-1">
<path style="stroke:none;" d="M 1.171875 -8.75 L 2.765625 -8.75 L 6.65625 -1.4375 L 6.65625 -8.75 L 7.796875 -8.75 L 7.796875 0 L 6.203125 0 L 2.328125 -7.3125 L 2.328125 0 L 1.171875 0 Z M 1.171875 -8.75 "/>
</symbol>
<symbol overflow="visible" id="glyph0-2">
<path style="stroke:none;" d="M 4.734375 -7.953125 C 3.867188 -7.953125 3.179688 -7.628906 2.671875 -6.984375 C 2.171875 -6.347656 1.921875 -5.472656 1.921875 -4.359375 C 1.921875 -3.265625 2.171875 -2.394531 2.671875 -1.75 C 3.179688 -1.113281 3.867188 -0.796875 4.734375 -0.796875 C 5.585938 -0.796875 6.265625 -1.113281 6.765625 -1.75 C 7.273438 -2.394531 7.53125 -3.265625 7.53125 -4.359375 C 7.53125 -5.472656 7.273438 -6.347656 6.765625 -6.984375 C 6.265625 -7.628906 5.585938 -7.953125 4.734375 -7.953125 Z M 4.734375 -8.90625 C 5.953125 -8.90625 6.925781 -8.492188 7.65625 -7.671875 C 8.394531 -6.847656 8.765625 -5.742188 8.765625 -4.359375 C 8.765625 -2.984375 8.394531 -1.882812 7.65625 -1.0625 C 6.925781 -0.238281 5.953125 0.171875 4.734375 0.171875 C 3.503906 0.171875 2.519531 -0.238281 1.78125 -1.0625 C 1.039062 -1.882812 0.671875 -2.984375 0.671875 -4.359375 C 0.671875 -5.742188 1.039062 -6.847656 1.78125 -7.671875 C 2.519531 -8.492188 3.503906 -8.90625 4.734375 -8.90625 Z M 4.734375 -8.90625 "/>
</symbol>
<symbol overflow="visible" id="glyph0-3">
<path style="stroke:none;" d="M 1.171875 -8.75 L 2.359375 -8.75 L 2.359375 -5.15625 L 6.65625 -5.15625 L 6.65625 -8.75 L 7.84375 -8.75 L 7.84375 0 L 6.65625 0 L 6.65625 -4.171875 L 2.359375 -4.171875 L 2.359375 0 L 1.171875 0 Z M 1.171875 -8.75 "/>
</symbol>
</g>
</defs>
<g id="surface46353">
<rect x="0" y="0" width="300" height="300" style="fill:rgb(100%,100%,100%);fill-opacity:1;stroke:none;"/>
<path style="fill:none;stroke-width:1.2;stroke-linecap:butt;stroke-linejoin:miter;stroke:rgb(0%,0%,0%);stroke-opacity:1;stroke-miterlimit:10;" d="M 41.910156 209.394531 L 65.1875 192.109375 "/>
<path style="fill:none;stroke-width:1.2;stroke-linecap:butt;stroke-linejoin:miter;stroke:rgb(0%,0%,0%);stroke-opacity:1;stroke-miterlimit:10;" d="M 65.1875 192.109375 L 78.492188 197.867188 "/>
<path style="fill:none;stroke-width:1.2;stroke-linecap:butt;stroke-linejoin:miter;stroke:rgb(0%,0%,100%);stroke-opacity:1;stroke-miterlimit:10;" d="M 78.492188 197.867188 L 91.800781 203.628906 "/>
<path style="fill:none;stroke-width:1.2;stroke-linecap:butt;stroke-linejoin:miter;stroke:rgb(0%,0%,0%);stroke-opacity:1;stroke-miterlimit:10;" d="M 70.558594 187 L 81.203125 191.605469 "/>
<path style="fill:none;stroke-width:1.2;stroke-linecap:butt;stroke-linejoin:miter;stroke:rgb(0%,0%,100%);stroke-opacity:1;stroke-miterlimit:10;" d="M 81.203125 191.605469 L 91.847656 196.214844 "/>
<path style="fill:none;stroke-width:1.2;stroke-linecap:butt;stroke-linejoin:miter;stroke:rgb(0%,0%,0%);stroke-opacity:1;stroke-miterlimit:10;" d="M 61.859375 163.304688 L 65.1875 192.109375 "/>
<path style="fill:none;stroke-width:1.2;stroke-linecap:butt;stroke-linejoin:miter;stroke:rgb(0%,0%,100%);stroke-opacity:1;stroke-miterlimit:10;" d="M 91.800781 203.628906 L 103.4375 194.984375 "/>
<path style="fill:none;stroke-width:1.2;stroke-linecap:butt;stroke-linejoin:miter;stroke:rgb(0%,0%,0%);stroke-opacity:1;stroke-miterlimit:10;" d="M 103.4375 194.984375 L 115.078125 186.34375 "/>
<path style=" stroke:none;fill-rule:nonzero;fill:rgb(100%,100%,100%);fill-opacity:1;" d="M 87.800781 196.628906 L 96.800781 196.628906 L 96.800781 210.628906 L 87.800781 210.628906 Z M 87.800781 196.628906 "/>
<g style="fill:rgb(0%,0%,100%);fill-opacity:1;">
  <use xlink:href="#glyph0-1" x="87.800781" y="207.767578"/>
</g>
<path style="fill:none;stroke-width:1.2;stroke-linecap:butt;stroke-linejoin:miter;stroke:rgb(0%,0%,0%);stroke-opacity:1;stroke-miterlimit:10;" d="M 115.078125 186.34375 L 141.6875 197.859375 "/>
<path style="fill:none;stroke-width:1.2;stroke-linecap:butt;stroke-linejoin:miter;stroke:rgb(0%,0%,0%);stroke-opacity:1;stroke-miterlimit:10;" d="M 120.449219 181.234375 L 141.738281 190.449219 "/>
<path style="fill:none;stroke-width:1.2;stroke-linecap:butt;stroke-linejoin:miter;stroke:rgb(0%,0%,0%);stroke-opacity:1;stroke-miterlimit:10;" d="M 111.75 157.539062 L 115.078125 186.34375 "/>
<path style="fill:none;stroke-width:1.2;stroke-linecap:butt;stroke-linejoin:miter;stroke:rgb(0%,0%,0%);stroke-opacity:1;stroke-miterlimit:10;" d="M 141.6875 197.859375 L 153.328125 189.21875 "/>
<path style="fill:none;stroke-width:1.2;stroke-linecap:butt;stroke-linejoin:miter;stroke:rgb(0%,0%,100%);stroke-opacity:1;stroke-miterlimit:10;" d="M 153.328125 189.21875 L 164.96875 180.574219 "/>
<path style="fill:none;stroke-width:1.2;stroke-linecap:butt;stroke-linejoin:miter;stroke:rgb(0%,0%,100%);stroke-opacity:1;stroke-miterlimit:10;" d="M 164.96875 180.574219 L 163.304688 166.175781 "/>
<path style="fill:none;stroke-width:1.2;stroke-linecap:butt;stroke-linejoin:miter;stroke:rgb(0%,0%,0%);stroke-opacity:1;stroke-miterlimit:10;" d="M 163.304688 166.175781 L 161.640625 151.773438 "/>
<path style="fill:none;stroke-width:1.2;stroke-linecap:butt;stroke-linejoin:miter;stroke:rgb(0%,0%,100%);stroke-opacity:1;stroke-miterlimit:10;" d="M 157.859375 178.480469 L 156.527344 166.957031 "/>
<path style="fill:none;stroke-width:1.2;stroke-linecap:butt;stroke-linejoin:miter;stroke:rgb(0%,0%,0%);stroke-opacity:1;stroke-miterlimit:10;" d="M 156.527344 166.957031 L 155.195312 155.4375 "/>
<path style=" stroke:none;fill-rule:nonzero;fill:rgb(100%,100%,100%);fill-opacity:1;" d="M 160.96875 173.574219 L 169.96875 173.574219 L 169.96875 187.574219 L 160.96875 187.574219 Z M 160.96875 173.574219 "/>
<g style="fill:rgb(0%,0%,100%);fill-opacity:1;">
  <use xlink:href="#glyph0-1" x="160.96875" y="184.712891"/>
</g>
<path style="fill:none;stroke-width:1.2;stroke-linecap:butt;stroke-linejoin:miter;stroke:rgb(0%,0%,0%);stroke-opacity:1;stroke-miterlimit:10;" d="M 161.640625 151.773438 L 148.335938 146.011719 "/>
<path style="fill:none;stroke-width:1.2;stroke-linecap:butt;stroke-linejoin:miter;stroke:rgb(0%,0%,100%);stroke-opacity:1;stroke-miterlimit:10;" d="M 148.335938 146.011719 L 135.03125 140.253906 "/>
<path style="fill:none;stroke-width:1.2;stroke-linecap:butt;stroke-linejoin:miter;stroke:rgb(0%,0%,0%);stroke-opacity:1;stroke-miterlimit:10;" d="M 161.640625 151.773438 L 173.28125 143.128906 "/>
<path style="fill:none;stroke-width:1.2;stroke-linecap:butt;stroke-linejoin:miter;stroke:rgb(0%,0%,100%);stroke-opacity:1;stroke-miterlimit:10;" d="M 173.28125 143.128906 L 184.921875 134.488281 "/>
<path style="fill:none;stroke-width:1.2;stroke-linecap:butt;stroke-linejoin:miter;stroke:rgb(0%,0%,100%);stroke-opacity:1;stroke-miterlimit:10;" d="M 135.03125 140.253906 L 123.390625 148.894531 "/>
<path style="fill:none;stroke-width:1.2;stroke-linecap:butt;stroke-linejoin:miter;stroke:rgb(0%,0%,0%);stroke-opacity:1;stroke-miterlimit:10;" d="M 123.390625 148.894531 L 111.75 157.539062 "/>
<path style="fill:none;stroke-width:1.2;stroke-linecap:butt;stroke-linejoin:miter;stroke:rgb(0%,0%,100%);stroke-opacity:1;stroke-miterlimit:10;" d="M 136.769531 147.460938 L 127.457031 154.375 "/>
<path style="fill:none;stroke-width:1.2;stroke-linecap:butt;stroke-linejoin:miter;stroke:rgb(0%,0%,0%);stroke-opacity:1;stroke-miterlimit:10;" d="M 127.457031 154.375 L 118.144531 161.289062 "/>
<path style=" stroke:none;fill-rule:nonzero;fill:rgb(100%,100%,100%);fill-opacity:1;" d="M 131.03125 133.253906 L 140.03125 133.253906 L 140.03125 147.253906 L 131.03125 147.253906 Z M 131.03125 133.253906 "/>
<g style="fill:rgb(0%,0%,100%);fill-opacity:1;">
  <use xlink:href="#glyph0-1" x="131.03125" y="144.392578"/>
</g>
<path style="fill:none;stroke-width:1.2;stroke-linecap:butt;stroke-linejoin:miter;stroke:rgb(0%,0%,0%);stroke-opacity:1;stroke-miterlimit:10;" d="M 111.75 157.539062 L 98.445312 151.777344 "/>
<path style="fill:none;stroke-width:1.2;stroke-linecap:butt;stroke-linejoin:miter;stroke:rgb(0%,0%,100%);stroke-opacity:1;stroke-miterlimit:10;" d="M 98.445312 151.777344 L 85.140625 146.019531 "/>
<path style="fill:none;stroke-width:1.2;stroke-linecap:butt;stroke-linejoin:miter;stroke:rgb(0%,0%,100%);stroke-opacity:1;stroke-miterlimit:10;" d="M 85.140625 146.019531 L 73.5 154.664062 "/>
<path style="fill:none;stroke-width:1.2;stroke-linecap:butt;stroke-linejoin:miter;stroke:rgb(0%,0%,0%);stroke-opacity:1;stroke-miterlimit:10;" d="M 73.5 154.664062 L 61.859375 163.304688 "/>
<path style="fill:none;stroke-width:1.2;stroke-linecap:butt;stroke-linejoin:miter;stroke:rgb(0%,0%,100%);stroke-opacity:1;stroke-miterlimit:10;" d="M 85.140625 146.019531 L 83.476562 131.617188 "/>
<path style="fill:none;stroke-width:1.2;stroke-linecap:butt;stroke-linejoin:miter;stroke:rgb(0%,0%,0%);stroke-opacity:1;stroke-miterlimit:10;" d="M 83.476562 131.617188 L 81.8125 117.214844 "/>
<path style=" stroke:none;fill-rule:nonzero;fill:rgb(100%,100%,100%);fill-opacity:1;" d="M 81.140625 139.019531 L 90.140625 139.019531 L 90.140625 153.019531 L 81.140625 153.019531 Z M 81.140625 139.019531 "/>
<g style="fill:rgb(0%,0%,100%);fill-opacity:1;">
  <use xlink:href="#glyph0-1" x="81.140625" y="150.158203"/>
</g>
<path style="fill:none;stroke-width:1.2;stroke-linecap:butt;stroke-linejoin:miter;stroke:rgb(0%,0%,0%);stroke-opacity:1;stroke-miterlimit:10;" d="M 63.214844 160.175781 L 49.910156 154.414062 "/>
<path style="fill:none;stroke-width:1.2;stroke-linecap:butt;stroke-linejoin:miter;stroke:rgb(100%,0%,0%);stroke-opacity:1;stroke-miterlimit:10;" d="M 49.910156 154.414062 L 36.605469 148.65625 "/>
<path style="fill:none;stroke-width:1.2;stroke-linecap:butt;stroke-linejoin:miter;stroke:rgb(0%,0%,0%);stroke-opacity:1;stroke-miterlimit:10;" d="M 60.503906 166.433594 L 47.199219 160.675781 "/>
<path style="fill:none;stroke-width:1.2;stroke-linecap:butt;stroke-linejoin:miter;stroke:rgb(100%,0%,0%);stroke-opacity:1;stroke-miterlimit:10;" d="M 47.199219 160.675781 L 33.894531 154.917969 "/>
<path style=" stroke:none;fill-rule:nonzero;fill:rgb(100%,100%,100%);fill-opacity:1;" d="M 25.25 144.785156 L 35.25 144.785156 L 35.25 158.785156 L 25.25 158.785156 Z M 25.25 144.785156 "/>
<g style="fill:rgb(100%,0%,0%);fill-opacity:1;">
  <use xlink:href="#glyph0-2" x="25.25" y="155.923828"/>
</g>
<path style="fill:none;stroke-width:1.2;stroke-linecap:butt;stroke-linejoin:miter;stroke:rgb(0%,0%,0%);stroke-opacity:1;stroke-miterlimit:10;" d="M 81.8125 117.214844 L 64.527344 93.933594 "/>
<path style="fill:none;stroke-width:1.2;stroke-linecap:butt;stroke-linejoin:miter;stroke:rgb(0%,0%,0%);stroke-opacity:1;stroke-miterlimit:10;" d="M 93.328125 90.605469 L 81.8125 117.214844 "/>
<path style="fill:none;stroke-width:1.2;stroke-linecap:butt;stroke-linejoin:miter;stroke:rgb(0%,0%,0%);stroke-opacity:1;stroke-miterlimit:10;" d="M 64.527344 93.933594 L 93.328125 90.605469 "/>
<path style="fill:none;stroke-width:1.2;stroke-linecap:butt;stroke-linejoin:miter;stroke:rgb(0%,0%,100%);stroke-opacity:1;stroke-miterlimit:10;" d="M 184.921875 134.488281 L 198.226562 140.246094 "/>
<path style="fill:none;stroke-width:1.2;stroke-linecap:butt;stroke-linejoin:miter;stroke:rgb(0%,0%,0%);stroke-opacity:1;stroke-miterlimit:10;" d="M 198.226562 140.246094 L 211.53125 146.003906 "/>
<path style=" stroke:none;fill-rule:nonzero;fill:rgb(100%,100%,100%);fill-opacity:1;" d="M 175.921875 127.488281 L 193.921875 127.488281 L 193.921875 141.488281 L 175.921875 141.488281 Z M 175.921875 127.488281 "/>
<g style="fill:rgb(0%,0%,100%);fill-opacity:1;">
  <use xlink:href="#glyph0-1" x="175.921875" y="138.626953"/>
  <use xlink:href="#glyph0-3" x="184.898438" y="138.626953"/>
</g>
<path style="fill:none;stroke-width:1.2;stroke-linecap:butt;stroke-linejoin:miter;stroke:rgb(0%,0%,0%);stroke-opacity:1;stroke-miterlimit:10;" d="M 211.53125 146.003906 L 214.859375 174.808594 "/>
<path style="fill:none;stroke-width:1.2;stroke-linecap:butt;stroke-linejoin:miter;stroke:rgb(0%,0%,0%);stroke-opacity:1;stroke-miterlimit:10;" d="M 218.640625 148.101562 L 221.304688 171.144531 "/>
<path style="fill:none;stroke-width:1.2;stroke-linecap:butt;stroke-linejoin:miter;stroke:rgb(0%,0%,0%);stroke-opacity:1;stroke-miterlimit:10;" d="M 234.8125 128.71875 L 211.53125 146.003906 "/>
<path style="fill:none;stroke-width:1.2;stroke-linecap:butt;stroke-linejoin:miter;stroke:rgb(0%,0%,0%);stroke-opacity:1;stroke-miterlimit:10;" d="M 214.859375 174.808594 L 241.46875 186.328125 "/>
<path style="fill:none;stroke-width:1.2;stroke-linecap:butt;stroke-linejoin:miter;stroke:rgb(0%,0%,0%);stroke-opacity:1;stroke-miterlimit:10;" d="M 241.46875 186.328125 L 264.75 169.042969 "/>
<path style="fill:none;stroke-width:1.2;stroke-linecap:butt;stroke-linejoin:miter;stroke:rgb(0%,0%,0%);stroke-opacity:1;stroke-miterlimit:10;" d="M 239.730469 179.121094 L 258.355469 165.292969 "/>
<path style="fill:none;stroke-width:1.2;stroke-linecap:butt;stroke-linejoin:miter;stroke:rgb(0%,0%,0%);stroke-opacity:1;stroke-miterlimit:10;" d="M 264.75 169.042969 L 261.421875 140.238281 "/>
<path style="fill:none;stroke-width:1.2;stroke-linecap:butt;stroke-linejoin:miter;stroke:rgb(0%,0%,0%);stroke-opacity:1;stroke-miterlimit:10;" d="M 261.421875 140.238281 L 234.8125 128.71875 "/>
<path style="fill:none;stroke-width:1.2;stroke-linecap:butt;stroke-linejoin:miter;stroke:rgb(0%,0%,0%);stroke-opacity:1;stroke-miterlimit:10;" d="M 256.050781 145.347656 L 234.761719 136.132812 "/>
</g>
</svg>

<svg xmlns="http://www.w3.org/2000/svg" xmlns:xlink="http://www.w3.org/1999/xlink" width="300pt" height="300pt" viewBox="0 0 300 300"><defs><symbol overflow="visible"><path d="M.594 2.125V-8.47h6V2.126zm.672-.672h4.671V-7.78h-4.67zm0 0"/></symbol><symbol overflow="visible" id="a"><path d="M1.172-8.75h1.594l3.89 7.313V-8.75h1.14V0H6.204L2.328-7.313V0H1.172zm0 0"/></symbol><symbol overflow="visible" id="b"><path d="M4.734-7.953c-.867 0-1.554.324-2.062.97-.5.635-.75 1.51-.75 2.624 0 1.094.25 1.965.75 2.61.508.637 1.195.953 2.062.953.852 0 1.532-.316 2.032-.953.507-.645.765-1.516.765-2.61 0-1.113-.257-1.988-.764-2.624-.5-.645-1.18-.97-2.032-.97zm0-.953c1.22 0 2.192.414 2.922 1.234.74.824 1.11 1.93 1.11 3.313 0 1.376-.37 2.477-1.11 3.298C6.926-.24 5.953.17 4.734.17c-1.23 0-2.214-.41-2.953-1.234C1.04-1.882.673-2.984.673-4.36c0-1.382.367-2.488 1.11-3.312.738-.82 1.722-1.234 2.952-1.234zm0 0"/></symbol><symbol overflow="visible" id="c"><path d="M1.172-8.75H2.36v3.594h4.296V-8.75h1.188V0H6.656v-4.172H2.36V0H1.17zm0 0"/></symbol></defs><g><path fill="#fff" d="M0 0h300v300H0z"/><path d="M41.91 209.395l23.278-17.286M65.188 192.11l13.304 5.757" stroke-width="1.2" stroke="#000" stroke-miterlimit="10" fill="none"/><path d="M78.492 197.867l13.31 5.762" stroke-width="1.2" stroke="#00f" stroke-miterlimit="10" fill="none"/><path d="M70.56 187l10.643 4.605" stroke-width="1.2" stroke="#000" stroke-miterlimit="10" fill="none"/><path d="M81.203 191.605l10.645 4.61" stroke-width="1.2" stroke="#00f" stroke-miterlimit="10" fill="none"/><path d="M61.86 163.305l3.328 28.804" stroke-width="1.2" stroke="#000" stroke-miterlimit="10" fill="none"/><path d="M91.8 203.63l11.638-8.646" stroke-width="1.2" stroke="#00f" stroke-miterlimit="10" fill="none"/><path d="M103.438 194.984l11.64-8.64" stroke-width="1.2" stroke="#000" stroke-miterlimit="10" fill="none"/><path d="M87.8 196.63h9v14h-9zm0 0" fill="#fff"/><use xlink:href="#a" x="87.801" y="207.768" fill="#00f"/><path d="M115.078 186.344l26.61 11.515M120.45 181.234l21.288 9.215M111.75 157.54l3.328 28.804M141.688 197.86l11.64-8.64" stroke-width="1.2" stroke="#000" stroke-miterlimit="10" fill="none"/><path d="M153.328 189.22l11.64-8.646M164.97 180.574l-1.665-14.398" stroke-width="1.2" stroke="#00f" stroke-miterlimit="10" fill="none"/><path d="M163.305 166.176l-1.664-14.403" stroke-width="1.2" stroke="#000" stroke-miterlimit="10" fill="none"/><path d="M157.86 178.48l-1.333-11.523" stroke-width="1.2" stroke="#00f" stroke-miterlimit="10" fill="none"/><path d="M156.527 166.957l-1.332-11.52" stroke-width="1.2" stroke="#000" stroke-miterlimit="10" fill="none"/><path d="M160.97 173.574h9v14h-9zm0 0" fill="#fff"/><use xlink:href="#a" x="160.969" y="184.713" fill="#00f"/><path d="M161.64 151.773l-13.304-5.76" stroke-width="1.2" stroke="#000" stroke-miterlimit="10" fill="none"/><path d="M148.336 146.012l-13.305-5.758" stroke-width="1.2" stroke="#00f" stroke-miterlimit="10" fill="none"/><path d="M161.64 151.773l11.64-8.644" stroke-width="1.2" stroke="#000" stroke-miterlimit="10" fill="none"/><path d="M173.28 143.13l11.642-8.642M135.03 140.254l-11.64 8.64" stroke-width="1.2" stroke="#00f" stroke-miterlimit="10" fill="none"/><path d="M123.39 148.895l-11.64 8.644" stroke-width="1.2" stroke="#000" stroke-miterlimit="10" fill="none"/><path d="M136.77 147.46l-9.313 6.915" stroke-width="1.2" stroke="#00f" stroke-miterlimit="10" fill="none"/><path d="M127.457 154.375l-9.312 6.914" stroke-width="1.2" stroke="#000" stroke-miterlimit="10" fill="none"/><path d="M131.03 133.254h9v14h-9zm0 0" fill="#fff"/><use xlink:href="#a" x="131.031" y="144.393" fill="#00f"/><path d="M111.75 157.54l-13.305-5.763" stroke-width="1.2" stroke="#000" stroke-miterlimit="10" fill="none"/><path d="M98.445 151.777L85.14 146.02M85.14 146.02l-11.64 8.644" stroke-width="1.2" stroke="#00f" stroke-miterlimit="10" fill="none"/><path d="M73.5 154.664l-11.64 8.64" stroke-width="1.2" stroke="#000" stroke-miterlimit="10" fill="none"/><path d="M85.14 146.02l-1.663-14.403" stroke-width="1.2" stroke="#00f" stroke-miterlimit="10" fill="none"/><path d="M83.477 131.617l-1.665-14.402" stroke-width="1.2" stroke="#000" stroke-miterlimit="10" fill="none"/><path d="M81.14 139.02h9v14h-9zm0 0" fill="#fff"/><use xlink:href="#a" x="81.141" y="150.158" fill="#00f"/><path d="M63.215 160.176l-13.305-5.762" stroke-width="1.2" stroke="#000" stroke-miterlimit="10" fill="none"/><path d="M49.91 154.414l-13.305-5.758" stroke-width="1.2" stroke="#f00" stroke-miterlimit="10" fill="none"/><path d="M60.504 166.434L47.2 160.676" stroke-width="1.2" stroke="#000" stroke-miterlimit="10" fill="none"/><path d="M47.2 160.676l-13.305-5.758" stroke-width="1.2" stroke="#f00" stroke-miterlimit="10" fill="none"/><path d="M25.25 144.785h10v14h-10zm0 0" fill="#fff"/><use xlink:href="#b" x="25.25" y="155.924" fill="#f00"/><path d="M81.813 117.215l-17.286-23.28M93.328 90.605l-11.516 26.61M64.527 93.934l28.8-3.33" stroke-width="1.2" stroke="#000" stroke-miterlimit="10" fill="none"/><path d="M184.922 134.488l13.305 5.758" stroke-width="1.2" stroke="#00f" stroke-miterlimit="10" fill="none"/><path d="M198.227 140.246l13.304 5.758" stroke-width="1.2" stroke="#000" stroke-miterlimit="10" fill="none"/><path d="M175.922 127.488h18v14h-18zm0 0" fill="#fff"/><g fill="#00f"><use xlink:href="#a" x="175.922" y="138.627"/><use xlink:href="#c" x="184.898" y="138.627"/></g><path d="M211.53 146.004l3.33 28.805M218.64 148.102l2.665 23.043M234.813 128.72l-23.282 17.284M214.86 174.81l26.61 11.518M241.47 186.328l23.28-17.285M239.73 179.12l18.625-13.827M264.75 169.043l-3.328-28.805M261.422 140.238l-26.61-11.52M256.05 145.348l-21.288-9.215" stroke-width="1.2" stroke="#000" stroke-miterlimit="10" fill="none"/></g></svg>
